!!!OTL-incipit: ES WAR EIN MARKGRAF UEBERN RHEIN
!!!ARE: Europa, Mitteleuropa, Deutschland, Rheinland
!!!SCT: Z0007
!!!TXL: @@DE
!!!YEM: Copyright 1995, estate of Helmut Schaffrath.
**kern	**text
*ICvox	*
*M3/4	*
*k[]	*
*a:	*
!LO:TX:a:t=Rheinländiſch.	!
{8e	Es
8e	war
8e	ein
=1	=1
4.a	Mark-
8cc/	-graf
8b/	ü-
8a	-ber'n
=2	=2
4g#	Rhein,
8r}	.
{8b/	der
8cc	hätt'
8dd	drei
=3	=3
4.ee	ſchö-
8dd	-ne
8cc	Töch-
8b	-ter-
=4	=4
4a	-lein.
8r}	.
{8e	Ʒwei
8e	Töch-
8e	-ter
=5	=5
4.a	früh
8cc/	hei-
8b/	-ra-
8a	-then
=6	=6
4g#	weg,
8r}	.
{8b/	die
8cc	dritt'
8dd	hat
=7	=7
4.ee	ihn
8dd	ins
8cc	Grab
8b	ge-
=8	=8
4a	-legt;
8r}	.
{8ee	dann
8ee	ging
8ee	ſie
=9	=9
4.ee	ſing'n
8b	vor
8cc	Schweſters
8a\	.
=10	=10
4b	Thür:
8r}	.
{8e	Ach
8a	braucht
8cc	ihr
=11	=11
4.ee	kei-
8dd	-ne
8cc	Dienſtmagd
8b	.
=12	=12
4a	hier.
8r}	.
{8ee	dann
8ee	ging
8ee	ſie
=13	=13
4.ee	ſing'n
8b	vor
8cc	Schweſters
8a\	.
=14	=14
4b	Thür:
8r}	.
{8e	Ach
8a	braucht
8cc	ihr
=15	=15
4.ee	kei-
8dd	-ne
8cc	Dienſtmagd
8b	.
=16	=16
4a	hier.
8r}	.
==	==
!!!AGN: Sagen - Lied, Romanze, Tod
!!!ONB: ESAC (Essen Associative Code) Database: ZUCCAL
!!!AMT: simple triple
!!!AIN: vox
!!!EED: Helmut Schaffrath
!!!EEV: 1.0
!!!GTL: I. Ernste Romanzen und Sagen.
!!!URL-scan: https://www.digitale-sammlungen.de/de/view/bsb11160571?page=25
!!!ENC: Anna Maria Matuszewska
!!!EEV: 2025/01/22
*-	*-
